build/system/ActionsOutline.svg

<svg xmlns="http://www.w3.org/2000/svg" fill="none" viewBox="0 0 24 24" focusable="false"><path d="M0 0H24V24H0z"/><path fill="#74767B" fill-rule="evenodd" d="M11.9999 3.56025C7.33883 3.56025 3.56025 7.33883 3.56025 11.9999C3.56025 12.3589 3.26924 12.6499 2.91025 12.6499C2.55127 12.6499 2.26025 12.3589 2.26025 11.9999C2.26025 6.62086 6.62086 2.26025 11.9999 2.26025C17.379 2.26025 21.7396 6.62086 21.7396 11.9999C21.7396 17.379 17.379 21.7396 11.9999 21.7396C11.641 21.7396 11.3499 21.4486 11.3499 21.0896C11.3499 20.7306 11.641 20.4396 11.9999 20.4396C16.6611 20.4396 20.4396 16.6611 20.4396 11.9999C20.4396 7.33883 16.6611 3.56025 11.9999 3.56025ZM11.9999 7.11445C9.7949 7.11445 7.92948 8.5758 7.32253 10.5843C7.21868 10.928 6.85593 11.1224 6.51229 11.0185C6.16865 10.9147 5.97426 10.5519 6.0781 10.2083C6.84622 7.66642 9.20596 5.81445 11.9999 5.81445C15.4161 5.81445 18.1854 8.58379 18.1854 11.9999C18.1854 14.7845 16.3459 17.1377 13.8173 17.9139C13.4741 18.0193 13.1105 17.8265 13.0052 17.4833C12.8999 17.1401 13.0927 16.7765 13.4358 16.6712C15.4339 16.0578 16.8854 14.1975 16.8854 11.9999C16.8854 9.30176 14.6981 7.11445 11.9999 7.11445ZM13.9333 11.9082C14.4231 10.7838 13.2809 9.64161 12.1565 10.1314L3.67481 13.8261C2.43472 14.3662 2.67133 16.1918 4.00817 16.398L6.92446 16.8477C7.07535 16.871 7.19375 16.9894 7.21702 17.1403L7.66678 20.0566C7.87295 21.3934 9.69849 21.63 10.2387 20.3899L13.9333 11.9082ZM12.6757 11.3232C12.6871 11.3183 12.6939 11.3173 12.6966 11.317C12.6995 11.3167 12.7018 11.3169 12.7042 11.3174C12.7097 11.3186 12.7202 11.3229 12.731 11.3337C12.7418 11.3445 12.7461 11.3551 12.7473 11.3606C12.7478 11.363 12.748 11.3652 12.7477 11.3681C12.7475 11.3708 12.7465 11.3776 12.7415 11.389L9.04684 19.8708C9.04045 19.8855 9.03512 19.8915 9.03364 19.8931L9.03084 19.8956L9.02931 19.8965C9.02531 19.8986 9.01315 19.9028 8.99458 19.9004C8.97601 19.898 8.96532 19.8908 8.96199 19.8878L8.96028 19.8859L8.95866 19.8834C8.95764 19.8815 8.95403 19.8743 8.95159 19.8584L8.50183 16.9421C8.39212 16.2308 7.83396 15.6726 7.1226 15.5629L4.20632 15.1131C4.19049 15.1107 4.18326 15.1071 4.18136 15.1061C4.17926 15.105 4.17699 15.1027 4.17699 15.1027C4.17394 15.0994 4.16677 15.0887 4.16436 15.0702C4.16195 15.0516 4.16617 15.0394 4.16826 15.0354C4.16826 15.0354 4.16989 15.0327 4.17164 15.0311C4.17322 15.0296 4.17929 15.0243 4.19398 15.0179L12.6757 11.3232Z"/></svg>

<svg xmlns="http://www.w3.org/2000/svg" fill="none" viewBox="0 0 24 24" focusable="false"><path fill="#74767B" fill-rule="evenodd" d="M3.56 11.99c0-4.66 3.77-8.43 8.44-8.43 4.66 0 8.43 3.77 8.43 8.43 0 4.67-3.77 8.44-8.43 8.44-.36 0-.65.3-.65.65 0 .36.29.65.65.65 5.37 0 9.73-4.36 9.73-9.74 0-5.37-4.36-9.73-9.73-9.73-5.38 0-9.74 4.36-9.74 9.73 0 .36.29.65.65.65.35 0 .65-.29.65-.65M12 7.11c-2.21 0-4.08 1.46-4.68 3.47a.65.65 0 0 1-.81.43.647.647 0 0 1-.44-.81A6.19 6.19 0 0 1 12 5.81c3.41 0 6.18 2.77 6.18 6.18 0 2.79-1.84 5.14-4.37 5.92-.34.1-.7-.09-.81-.43s.09-.71.43-.81a4.9 4.9 0 0 0 3.45-4.68c0-2.69-2.19-4.88-4.88-4.88m1.93 4.79c.49-1.12-.65-2.26-1.78-1.77l-8.48 3.69c-1.24.54-1 2.37.33 2.57l2.92.45c.15.03.27.14.29.3l.45 2.91c.21 1.34 2.03 1.58 2.57.33zm-1.26-.58c.01-.01.02-.01.02-.01h.01s.02.01.03.02.01.02.01.03v.02l-3.7 8.49c0 .01-.01.02-.01.02h-.01s-.01.01-.03.01c-.02-.01-.03-.01-.03-.02h-.01v-.03l-.45-2.91c-.11-.71-.67-1.27-1.38-1.38l-2.92-.45c-.01 0-.02-.01-.02-.01h-.01c0-.01-.01-.02-.01-.03v-.04h.01c0-.01 0-.01.02-.02z"/></svg>
